file/cnooc-group.svg

<svg clip-rule="evenodd" fill-rule="evenodd" stroke-linejoin="round" stroke-miterlimit="1.41421" viewBox="0 0 560 400" xmlns="http://www.w3.org/2000/svg"><g transform="matrix(.814578 0 0 .814578 145 77.1226)"><g fill-rule="nonzero"><path d="m110.023 34.317 6.175-34.317h31.341l6.798 32.277c51.813 5.684 95.022 39.236 113.451 84.891h63.672l-12.127 60.115h-42.407c-5.616 69.579-65.412 124.413-138.247 124.413-76.539 0-138.679-60.553-138.679-135.137 0-65.011 47.214-119.362 110.023-132.242z" fill="#fff"/><path d="m12.283 148.541c8.93-59.846 61.92-105.818 125.952-105.818 50.916 0 94.848 29.07 115.2 71.065h-33.906c-11.788-32.444-43.836-55.712-81.512-55.712-47.693 0-86.359 37.278-86.359 83.261 0 45.978 38.666 83.255 86.359 83.255 34.593 0 64.434-19.608 78.223-47.927h48.844c-.652 7.765-2.037 15.335-4.1 22.629h-3.223c-50.812 0-74.318 44.936-134.122 44.936-48.868 0-107.976-38.389-111.356-95.689" fill="#005ca5"/><path d="m256.06 213.359c-2.915 6.912-6.452 13.513-10.548 19.731-44.709 2.676-64.479 32.302-118.44 32.302-49.914 0-109.861-31.553-115.664-97.03 14.679 56.034 69.557 81.947 114.617 81.947 60.173 0 81.788-36.119 130.035-36.95" fill="#005ca5"/><path d="m235.091 246.759c-23.351 26.591-58.074 43.452-96.856 43.452-52.698 0-97.918-31.136-117.253-75.521 25.338 36.075 70.459 56.924 106.09 56.924 65.857-.001 64.547-23.883 108.019-24.855" fill="#005ca5"/><path d="m283.173 128.188h35.219l-2.383 11.719h-22.983l-2.648 13.876h22.808l-2.214 10.897h-35.553z" fill="#f8192f"/><path d="m95.053 186.455 31.185-173.314h11.434l31.587 149.972 7.347-34.452h14.776l-10.283 56.982h-25.798l-22.528-102.455-19.269 103.267z" fill="#f8192f"/><path d="m59.796 142.111c0-42.336 35.191-76.653 78.598-76.653 34.141 0 63.202 21.235 74.053 50.9h-16.669c-9.972-21.564-32-36.545-57.567-36.545-34.938 0-63.267 27.975-63.267 62.488 0 34.522 28.329 62.505 63.267 62.505 22.091 0 41.534-11.193 52.851-28.143h17.514c-12.953 24.976-39.519 42.101-70.182 42.101-43.407.001-78.598-34.317-78.598-76.653" fill="#f8192f"/></g><path d="m240.481 128.188h37.31l-7.432 36.492h-37.638zm9.857 11.719h13.616l-2.649 13.876h-13.621z" fill="#f8192f"/><path d="m197.273 128.188h37.311l-7.432 36.492h-37.631zm9.853 11.719h13.62l-2.649 13.876h-13.62z" fill="#f8192f"/></g></svg>

<?xml version="1.0" encoding="UTF-8" standalone="no"?>
<!DOCTYPE svg PUBLIC "-//W3C//DTD SVG 1.1//EN" "http://www.w3.org/Graphics/SVG/1.1/DTD/svg11.dtd">
<svg width="100%" height="100%" viewBox="0 0 560 400" version="1.1" xmlns="http://www.w3.org/2000/svg" xmlns:xlink="http://www.w3.org/1999/xlink" xml:space="preserve" xmlns:serif="http://www.serif.com/" style="fill-rule:evenodd;clip-rule:evenodd;stroke-linejoin:round;stroke-miterlimit:1.41421;">
    <g transform="matrix(0.814578,0,0,0.814578,145,77.1226)">
        <path id="polygon5" d="M110.023,34.317L116.198,0L147.539,0L154.337,32.277C206.15,37.961 249.359,71.513 267.788,117.168L331.46,117.168L319.333,177.283L276.926,177.283C271.31,246.862 211.514,301.696 138.679,301.696C62.14,301.696 0,241.143 0,166.559C0,101.548 47.214,47.197 110.023,34.317Z" style="fill:white;fill-rule:nonzero;"/>
        <g id="g11">
            <g id="g13">
                <path id="path15" d="M12.283,148.541C21.213,88.695 74.203,42.723 138.235,42.723C189.151,42.723 233.083,71.793 253.435,113.788L219.529,113.788C207.741,81.344 175.693,58.076 138.017,58.076C90.324,58.076 51.658,95.354 51.658,141.337C51.658,187.315 90.324,224.592 138.017,224.592C172.61,224.592 202.451,204.984 216.24,176.665L265.084,176.665C264.432,184.43 263.047,192 260.984,199.294L257.761,199.294C206.949,199.294 183.443,244.23 123.639,244.23C74.771,244.23 15.663,205.841 12.283,148.541" style="fill:rgb(0,92,165);fill-rule:nonzero;"/>
                <path id="path17" d="M256.06,213.359C253.145,220.271 249.608,226.872 245.512,233.09C200.803,235.766 181.033,265.392 127.072,265.392C77.158,265.392 17.211,233.839 11.408,168.362C26.087,224.396 80.965,250.309 126.025,250.309C186.198,250.309 207.813,214.19 256.06,213.359" style="fill:rgb(0,92,165);fill-rule:nonzero;"/>
                <path id="path19" d="M235.091,246.759C211.74,273.35 177.017,290.211 138.235,290.211C85.537,290.211 40.317,259.075 20.982,214.69C46.32,250.765 91.441,271.614 127.072,271.614C192.929,271.613 191.619,247.731 235.091,246.759" style="fill:rgb(0,92,165);fill-rule:nonzero;"/>
            </g>
            <g id="g21">
                <path id="polyline23" d="M283.173,128.188L318.392,128.188L316.009,139.907L293.026,139.907L290.378,153.783L313.186,153.783L310.972,164.68L275.419,164.68L283.173,128.188" style="fill:rgb(248,25,47);fill-rule:nonzero;"/>
                <path id="polyline25" d="M95.053,186.455L126.238,13.141L137.672,13.141L169.259,163.113L176.606,128.661L191.382,128.661L181.099,185.643L155.301,185.643L132.773,83.188L113.504,186.455L95.053,186.455" style="fill:rgb(248,25,47);fill-rule:nonzero;"/>
                <path id="path27" d="M59.796,142.111C59.796,99.775 94.987,65.458 138.394,65.458C172.535,65.458 201.596,86.693 212.447,116.358L195.778,116.358C185.806,94.794 163.778,79.813 138.211,79.813C103.273,79.813 74.944,107.788 74.944,142.301C74.944,176.823 103.273,204.806 138.211,204.806C160.302,204.806 179.745,193.613 191.062,176.663L208.576,176.663C195.623,201.639 169.057,218.764 138.394,218.764C94.987,218.765 59.796,184.447 59.796,142.111" style="fill:rgb(248,25,47);fill-rule:nonzero;"/>
                <path id="path29" d="M240.481,128.188L277.791,128.188L270.359,164.68L232.721,164.68L240.481,128.188M250.338,139.907L263.954,139.907L261.305,153.783L247.684,153.783L250.338,139.907Z" style="fill:rgb(248,25,47);"/>
                <path id="path31" d="M197.273,128.188L234.584,128.188L227.152,164.68L189.521,164.68L197.273,128.188M207.126,139.907L220.746,139.907L218.097,153.783L204.477,153.783L207.126,139.907Z" style="fill:rgb(248,25,47);"/>
            </g>
        </g>
    </g>
</svg>
